**kern	**kern	**kern
*staff3	*staff2	*staff1
*tb32	*tb32	*tb32
*clefF4	*clefF4	*clefG2
*k[f#c#g#]	*k[f#c#g#]	*k[f#c#g#]
*M2/4	*M2/4	*M2/4
*A:	*A:	*A:
2A	(8c#L	(8.aL
.	8eJ	.
.	.	48bLL
.	.	48a
.	.	48g#
.	4c#)	8a'L)
.	.	8a'J
=397	=397	=397
2G#	(8dL	(8.eeL
.	8eJ	.
.	.	48ff#LL
.	.	48ee
.	.	48dd#
.	4d)	8ee'L)
.	.	8ee'J
=398	=398	=398
2A	(8c#L	(8.aaL
.	8eJ	.
.	.	48bbLL
.	.	48aa
.	.	48gg#
.	4c#)	8aa'L)
.	.	8aa'J
=399	=399	=399
2G#	(8dL	(8.eeeL
.	8eJ	.
.	.	48fffLL
.	.	48eee
.	.	48ddd#
.	4d)	8eee'L)
.	.	8eee'J
=400	=400	=400
4.A	(8c#	(8.ccc#L
.	4e)	.
.	.	48dddLL
.	.	48ccc#
.	.	48bb
.	.	8ccc#'L)
8E'	8d'	8bb'J
=401	=401	=401
8A	8c#	8aa
8r	8r	8r
16DLL	4r	8r
16E	.	.
16F#	.	8a 8aa
16D#JJ	.	.
=402	=402	=402
4.E	(8E	(8.cc#L
.	4e)	.
.	.	48ddLL
.	.	48cc#
.	.	48b
.	.	8cc#'L)
8E'	8d'	8b'J
=403	=403	=403
8A	8c#	8a
8r	8r	8r
4r	16dLL	8r
.	16e	.
.	16f#	8a 8aa
.	16d#JJ	.
=404	=404	=404
(8e	4.e	(8.cc#L
4E)	.	.
.	.	48ddLL
.	.	48cc#
.	.	48b
.	.	8cc#'L)
8E'	8d'	8b'J
=	=	=
4A	4c#	4a
8r	8r	8r
*||	*||	*||
*-	*-	*-
